FINK
CUT[WIR SIND DIE KOENIGE DER WELT]
REG[Europa, Mitteleuropa, Deutschland]
KEY[F0020  16  G 4/4]
MEL[1_3_  5__.5_4_.34_5_  3___0__
    1__  2__.2_2_6_5_4_  4_.33__0__
    1_3_  5__.5_4_.34_5_  3___0__
    1__  2__.2_2_6_5_4_  4_.33__0__
    3__  2__.2_3_2_3_4#_  5___0__
    2__  7__.5_4#_5_6_4#_  5___0__
    5__  5__.4_3_2_1_-7b_  -6_1_4_5_6_0_
    6__  5__.3_5_4_3_2_  1___0__ //] >>
FCT[Trink - Lied]
